openmetadata-ui/src/main/resources/ui/src/assets/svg/ic-store.svg

<svg width="40" height="40" viewBox="0 0 40 40" fill="none" xmlns="http://www.w3.org/2000/svg">
<circle cx="20" cy="20" r="20" fill="#2EAADC" fill-opacity="0.15"/>
<g clip-path="url(#clip0)">
<path d="M29.3134 13.9998C30.2268 13.0864 30.2268 11.6001 29.3134 10.6867C28.3979 9.77116 26.9159 9.77104 26.0003 10.6867C25.0868 11.6001 25.0868 13.0864 26.0003 13.9998C26.9158 14.9153 28.3978 14.9155 29.3134 13.9998ZM26.8285 11.515C27.2863 11.0572 28.0273 11.0572 28.4851 11.515C28.9418 11.9717 28.9418 12.7148 28.4851 13.1715C28.0274 13.6293 27.2863 13.6293 26.8285 13.1715C26.3719 12.7148 26.3719 11.9717 26.8285 11.515Z" fill="#2EAADC"/>
<path d="M13.9998 29.3094C14.9132 28.396 14.9132 26.9098 13.9998 25.9963C13.0843 25.0808 11.6023 25.0807 10.6867 25.9963C9.77323 26.9098 9.77323 28.396 10.6867 29.3094C11.6022 30.225 13.0842 30.2251 13.9998 29.3094ZM11.5149 26.8246C11.9727 26.3668 12.7137 26.3668 13.1715 26.8246C13.6282 27.2813 13.6282 28.0245 13.1715 28.4812C12.7137 28.9389 11.9727 28.939 11.5149 28.4812C11.0583 28.0245 11.0583 27.2813 11.5149 26.8246Z" fill="#2EAADC"/>
<path d="M13.9998 13.9998C14.9132 13.0864 14.9132 11.6001 13.9998 10.6867C13.0843 9.77116 11.6023 9.77104 10.6867 10.6867C9.77323 11.6001 9.77323 13.0864 10.6867 13.9998C11.6022 14.9153 13.0842 14.9155 13.9998 13.9998ZM11.5149 11.515C11.9727 11.0572 12.7137 11.0572 13.1715 11.515C13.6282 11.9717 13.6282 12.7148 13.1715 13.1715C12.7138 13.6293 11.9727 13.6293 11.5149 13.1715C11.0583 12.7148 11.0583 11.9717 11.5149 11.515Z" fill="#2EAADC"/>
<path d="M26.0003 26.0002C25.0868 26.9136 25.0868 28.3998 26.0003 29.3133C26.9158 30.2288 28.3978 30.2289 29.3134 29.3133C30.2268 28.3999 30.2268 26.9136 29.3134 26.0002C28.3979 25.0847 26.9159 25.0845 26.0003 26.0002ZM28.4851 28.485C28.0273 28.9428 27.2863 28.9428 26.8285 28.485C26.3719 28.0283 26.3719 27.2851 26.8285 26.8284C27.2863 26.3707 28.0273 26.3706 28.4851 26.8284C28.9418 27.2851 28.9418 28.0283 28.4851 28.485Z" fill="#2EAADC"/>
<path d="M13.1715 18.9695L14.2021 20L13.2081 20.9939C12.0634 22.1386 12.0266 24.0231 13.1715 25.1681L14.8281 26.8246C15.9695 27.9659 17.8272 27.9668 18.9692 26.8249L19.9987 25.7966L21.0306 26.8285C21.5836 27.3816 22.319 27.6862 23.1012 27.6862C23.8834 27.6862 24.6188 27.3816 25.1719 26.8285L26.8285 25.1719C27.9702 24.0302 27.9702 22.1723 26.8285 21.0305L25.7979 20L26.8285 18.9695C27.9729 17.8252 27.9731 15.9727 26.8285 14.8281L25.1719 13.1715C24.0301 12.0298 22.1723 12.0297 21.0306 13.1715L20 14.2021L18.9694 13.1716C17.8251 12.0272 15.9726 12.027 14.8281 13.1716L13.1715 14.8282C12.0297 15.9699 12.0297 17.8277 13.1715 18.9695ZM18.1412 25.9963C17.4561 26.6814 16.3413 26.6814 15.6563 25.9963L13.9998 24.3398C13.3079 23.6479 13.3554 22.5032 14.0364 21.8222L15.0303 20.8283L15.929 21.7269C15.6228 22.3663 15.7216 23.1762 16.2728 23.7272C16.8233 24.2778 17.6331 24.3775 18.2731 24.071L19.1704 24.9684L18.1412 25.9963ZM19.1013 16.7573L20 15.8586L21.6566 17.5152L22.0707 17.101C22.2995 16.8721 22.67 16.8721 22.899 17.101C23.1279 17.3299 23.128 17.7003 22.899 17.9293L22.4848 18.3434L24.1414 20L23.2421 20.8993C22.5892 20.5881 21.7823 20.7025 21.2424 21.2424C20.6926 21.7922 20.5918 22.6016 20.8985 23.2425L19.9992 24.1406L18.3434 22.4848L17.9293 22.899C17.7003 23.1279 17.33 23.1279 17.101 22.899C16.8721 22.6701 16.872 22.2997 17.101 22.0707L17.5151 21.6566L15.8586 20L16.7578 19.1008C17.4109 19.412 18.2176 19.2975 18.7575 18.7576C19.3082 18.207 19.4077 17.3973 19.1013 16.7573ZM26.0002 21.8588C26.6852 22.5439 26.6852 23.6586 26.0002 24.3437L24.3436 26.0002C24.0117 26.3321 23.5705 26.5149 23.1012 26.5149C22.6318 26.5149 22.1906 26.3321 21.8588 26.0002L20.8275 24.9689L22.4851 23.3134L22.0707 22.899C21.8418 22.6701 21.8418 22.2997 22.0707 22.0707C22.2991 21.8424 22.6706 21.8424 22.899 22.0707L23.3131 22.4849L24.9696 20.8283L26.0002 21.8588ZM21.8588 13.9998C22.5439 13.3147 23.6586 13.3148 24.3436 13.9998L26.0002 15.6564C26.6868 16.343 26.6869 17.4545 26.0002 18.1412L24.9696 19.1717L24.071 18.2731C24.3772 17.6337 24.2783 16.8238 23.7272 16.2728C23.1767 15.7223 22.3669 15.6226 21.7269 15.929L20.8283 15.0304L21.8588 13.9998ZM13.9998 15.6563L15.6564 13.9998C16.343 13.3132 17.4545 13.3131 18.1412 13.9998L19.1717 15.0303L17.5151 16.6869L17.9293 17.1011C18.1582 17.33 18.1582 17.7004 17.9293 17.9293C17.7009 18.1577 17.3294 18.1577 17.101 17.9293L16.6869 17.5152L15.0303 19.1717L13.9998 18.1412C13.3147 17.4561 13.3147 16.3414 13.9998 15.6563Z" fill="#2EAADC"/>
</g>
<defs>
<clipPath id="clip0">
<rect width="20" height="20" fill="white" transform="translate(10 10)"/>
</clipPath>
</defs>
</svg>

<svg xmlns="http://www.w3.org/2000/svg" width="40" height="40" fill="none"><circle cx="20" cy="20" r="20" fill="#2EAADC" fill-opacity=".15"/><g fill="#2EAADC" clip-path="url(#a)"><path d="M29.313 14c.914-.914.914-2.4 0-3.313a2.341 2.341 0 0 0-3.313 0A2.345 2.345 0 0 0 26 14a2.341 2.341 0 0 0 3.313 0Zm-2.485-2.485a1.17 1.17 0 1 1 1.657 1.655 1.17 1.17 0 0 1-1.657-1.655ZM14 29.31c.913-.914.913-2.4 0-3.314a2.342 2.342 0 1 0-3.313 3.313 2.341 2.341 0 0 0 3.313 0Zm-2.485-2.485a1.17 1.17 0 1 1 1.656 1.654 1.17 1.17 0 0 1-1.656-1.654ZM14 14c.913-.914.913-2.4 0-3.313a2.341 2.341 0 0 0-3.313 0 2.345 2.345 0 0 0 0 3.313A2.341 2.341 0 0 0 14 14Zm-2.485-2.485a1.17 1.17 0 1 1 1.656 1.655 1.17 1.17 0 0 1-1.656-1.655ZM26 26a2.342 2.342 0 1 0 3.313 0A2.341 2.341 0 0 0 26 26Zm2.485 2.485a1.17 1.17 0 1 1-1.657-1.655 1.17 1.17 0 0 1 1.657 1.655Z"/><path d="M13.171 18.97 14.203 20l-.994.994c-1.145 1.145-1.181 3.03-.037 4.174l1.657 1.657a2.932 2.932 0 0 0 4.141 0L20 25.797l1.032 1.031a2.909 2.909 0 0 0 2.07.858 2.91 2.91 0 0 0 2.07-.858l1.657-1.656a2.932 2.932 0 0 0 0-4.142L25.798 20l1.03-1.03a2.927 2.927 0 0 0 0-4.142l-1.656-1.656a2.932 2.932 0 0 0-4.141 0L20 14.201l-1.03-1.03a2.927 2.927 0 0 0-4.142 0l-1.656 1.656a2.932 2.932 0 0 0 0 4.142Zm4.97 7.026a1.76 1.76 0 0 1-2.485 0L14 24.34c-.692-.692-.645-1.837.036-2.518l.994-.994.899.899a1.757 1.757 0 0 0 2.344 2.344l.897.897-1.029 1.028Zm.96-9.239L20 15.86l1.657 1.656.414-.414a.585.585 0 1 1 .828.828l-.414.414L24.14 20l-.899.9a1.758 1.758 0 0 0-2.344 2.343L20 24.14l-1.656-1.656-.414.414a.585.585 0 1 1-.828-.828l.414-.414L15.86 20l.899-.9a1.758 1.758 0 0 0 2.343-2.343Zm6.9 5.102a1.76 1.76 0 0 1 0 2.485L24.343 26a1.746 1.746 0 0 1-1.243.515c-.47 0-.91-.183-1.242-.515l-1.032-1.031 1.658-1.656-.414-.414a.585.585 0 1 1 .828-.828l.414.414 1.657-1.657 1.03 1.03Zm-4.142-7.86a1.759 1.759 0 0 1 2.485 0L26 15.657a1.756 1.756 0 0 1 0 2.485l-1.03 1.03-.899-.898a1.758 1.758 0 0 0-2.344-2.344l-.899-.899 1.03-1.03Zm-7.86 1.657L15.657 14a1.756 1.756 0 0 1 2.485 0l1.03 1.03-1.656 1.657.414.414a.585.585 0 1 1-.828.828l-.414-.414-1.657 1.657-1.03-1.03a1.76 1.76 0 0 1 0-2.486Z"/></g><defs><clipPath id="a"><path fill="#fff" d="M10 10h20v20H10z"/></clipPath></defs></svg>
